resources/dark/bolt-grey.svg

<svg fill="none" height="16" viewBox="0 0 16 16" width="16" xmlns="http://www.w3.org/2000/svg"><path d="m10.9369 5.75h-2.70476l.81136-3.04256c.09516-.35691-.17423-.70744-.54351-.70744h-3.1875c-.28193 0-.52032.20871-.55756.48816l-.7499 5.625c-.04498.33724.21771.63684.55755.63684h2.78205l-1.0795 4.5578c-.08428.3558.1878.6922.54717.6922.1957 0 .38381-.1025.48698-.2807l4.12442-7.12496c.2166-.37423-.0537-.84434-.4868-.84434z" fill="#4f5258"/></svg>

<svg width="16" height="16" viewBox="0 0 16 16" fill="none" xmlns="http://www.w3.org/2000/svg">
<path d="M10.9369 5.75H8.23214L9.0435 2.70744C9.13866 2.35053 8.86927 2 8.49999 2H5.31249C5.03056 2 4.79217 2.20871 4.75493 2.48816L4.00503 8.11316C3.96005 8.4504 4.22274 8.75 4.56258 8.75H7.34463L6.26513 13.3078C6.18085 13.6636 6.45293 14 6.8123 14C7.008 14 7.19611 13.8975 7.29928 13.7193L11.4237 6.59434C11.6403 6.22011 11.37 5.75 10.9369 5.75Z" fill="#4F5258"/>
</svg>
